X:370
T:Lough Gill
T:Millpond, The
R:jig
S:Kevin Finucane & Con Moynihan
Z:id:hn-jig-370
M:6/8
L:1/8
K:G
DGG BGG|dGG BGG|DFA DFA|DFA cBA|
DGG BGG|dGG BGG|DFA cBA|1 AGF G2E:|2 AGF GBc||
|:dgg bgg|aff gee|Ace a2g|fag fed|
Bdg bgg|aff gee|ABc dcA|1 AGF GBc:|2 AGF G2E||

